packages/foundations/assets/icons/functional/images/navigation/magnifying_glass_16.svg

<svg width="16" height="16" viewBox="0 0 16 16" fill="none" xmlns="http://www.w3.org/2000/svg">
<g clip-path="url(#clip0_187_102)">
<path fill-rule="evenodd" clip-rule="evenodd" d="M7.19998 1.60001C10.2959 1.60001 12.8 4.10407 12.8 7.20001C12.8 8.4748 12.3707 9.61301 11.6943 10.5496L14.1658 13.0211C14.3219 13.1772 14.4 13.3854 14.4 13.5935C14.4 14.0347 14.0498 14.4 13.6227 14.4C13.4244 14.4 13.2162 14.322 13.0211 14.1659L10.5496 11.6943C9.61298 12.3968 8.44876 12.8 7.19998 12.8C4.10404 12.8 1.59998 10.2959 1.59998 7.20001C1.59998 4.10407 4.10404 1.60001 7.19998 1.60001ZM7.19347 3.21301C4.98209 3.21301 3.21298 4.98212 3.21298 7.1935C3.21298 9.40488 4.98209 11.2 7.19347 11.2C9.40485 11.2 11.2 9.40488 11.2 7.1935C11.2 4.98212 9.40485 3.21301 7.19347 3.21301Z" fill="#1A1C1F"/>
</g>
<defs>
<clipPath id="clip0_187_102">
<rect width="16" height="16" fill="white"/>
</clipPath>
</defs>
</svg>

<svg xmlns="http://www.w3.org/2000/svg" width="16" height="16" fill="none"><g clip-path="url(#a)"><path fill="#1A1C1F" fill-rule="evenodd" d="M7.2 1.6c3.096 0 5.6 2.504 5.6 5.6 0 1.275-.43 2.413-1.106 3.35l2.472 2.471a.8.8 0 0 1 .234.572c0 .442-.35.807-.777.807a.97.97 0 0 1-.602-.234l-2.471-2.472A5.56 5.56 0 0 1 7.2 12.8a5.596 5.596 0 0 1-5.6-5.6c0-3.096 2.504-5.6 5.6-5.6m-.007 1.613a3.964 3.964 0 0 0-3.98 3.98c0 2.212 1.77 4.007 3.98 4.007A4.01 4.01 0 0 0 11.2 7.194c0-2.212-1.795-3.981-4.007-3.981" clip-rule="evenodd"/></g><defs><clipPath id="a"><path fill="#fff" d="M0 0h16v16H0z"/></clipPath></defs></svg>
